!!!COM: Anon.
!!!LAR: Arban, Jean-Baptiste
!!!OTL: My Pretty Jane
!!!OPR: The Art of Phrasing: 150 Classic and Popular Melodies
!!!ONM: No. 003
!!!OMD: Andante
**kern	**dynam
*ITromp	*
*ITrd1c2	*
*clefG2	*
*A-:	*
*k[b-e-a-d-]	*
*M4/4	*
*met(c)	*
4e-	f
=1	=1
(4.cc	.
8b-)	.
(8dd-L	.
8cc)	.
8b-	.
8a-J	.
=2	=2
(4g	.
4f)	.
(8b-L	.
8a)-	.
8g	.
8fJ	.
=3	=3
(8e-	.
4.a-)	.
(8gL	.
8e-)	.
(8cc	.
8b-)J	.
=4	=4
2a-	.
4r	.
4e-	.
=5	=5
4.cc	p
8ee-	.
(8dd-L	.
8cc)	.
8b-	.
8a-J	.
=6	=6
(8gL	.
8f	.
8e	.
8f)J	.
8(b-L	.
8a-)	.
8g	.
8fJ	.
=7	=7
(8e-	.
4.a-)	.
(8gL	.
8e-)J	.
(8.ccL	.
16b-)J	.
=8	=8
2a-	.
4r	.
4a-	.
=9	=9
4g	.
8a-L	.
8b-J	.
(8ccL	.
8b-)	.
8a-	.
8fJ	.
=10	=10
(4.e-	.
32fQL	.
32e-Q	.
32dQ	.
32e-QJ	.
8f)	.
4g,	.
4a-	.
=11	=11
(4b-	.
4ee-)	.
(8ddL	.
8b-)	.
8a-	.
8fJ	.
=12	=12
2e-	.
4r	.
4e-	.
=13	=13
(8e-	.
4.a-)	.
(8gL	.
8a-)	.
8cc	.
8ee-J	.
=14	=14
(4.ee-	.
8f)	.
4f,	.
4dd-	.
=15	=15
(4cc	.
4a-)	.
(4.b-	.
8g)	.
=16	=16
2a-	.
4r	.
4e-	.
=17	=17
(8a-	.
4.cc)	.
(4.b-	.
8a-)	.
=18	=18
(4.dd-	.
8b-)	.
4.g,	.
8e-	.
=19	=19
(8a-	.
4.cc)	.
(4b-	.
4a-)	.
=20	=20
(4.ee-	.
8dd)	.
4dd-;,	.
4b-	.
=21	=21
(4.cc	.
8b-)	.
(8dd-L	.
8cc)	.
8b-	.
8a-J	.
=22	=22
(8b-L	.
8a-)	.
8f	.
8g)J	.
4a-,	.
8.ffL	.
16ffJ	.
=23	=23
(4.ee-	.
8a-)	.
(4.cc	.
8b-)	.
=24	=24
2.a-	.
==|!	==|!
*-	*-
!!!OCL: Edwin Franko Goldman
!!!OCL: Walter M. Smith
!!!OCL: Claude Gordon
!!!YOR: Arban's Complete Conservatory Method for Trumpet/Cornet
!!!PPR: Carl Fischer
!!!PPP: New York, NY
!!!PDT: 1893///
!!!reprint: Carl Fischer, 1982: ISBN 0-8258-0385-3
!!!EFL: 3/150
!!!ENC: Hubert Léveillé Gauvin
!!!END: 2018/05/10/